Yaru++/apps/scalable/google-keep.svg

<svg height="256" viewBox="0 0 67.733332 67.733335" width="256" xmlns="http://www.w3.org/2000/svg" xmlns:xlink="http://www.w3.org/1999/xlink">
  <clipPath id="clip-path">
    <path d="m128 172h-96a12.03527 12.03527 0 0 1 -12-12v-128a12.03528 12.03528 0 0 1 12-12h128a12.03527 12.03527 0 0 1 12 12v96z"/>
  </clipPath>
  <filter id="material-drop-shadow" height="192" width="192" x="-24" y="-24">
    <feGaussianBlur in="SourceGraphic" result="blur" stdDeviation="4"/>
    <feOffset dx="4" dy="4" in="blur" result="offsetBlurredGraphic"/>
  </filter>
  <filter id="filter1627" color-interpolation-filters="sRGB" height="1.024" width="1.024" x="-.012" y="-.012">
    <feGaussianBlur stdDeviation=".30162501"/>
  </filter>
  <filter id="filter1641" color-interpolation-filters="sRGB" height="1.096" width="1.096" x="-.048" y="-.048">
    <feGaussianBlur stdDeviation="1.2065"/>
  </filter>
  <g transform="translate(0 -229.26665)">
    <g stroke-width=".396875">
      <path d="m46.56667 293.29582h-38.1000033c-2.6270652-.008-4.7548125-2.13543-4.7625-4.7625v-50.8c.00769-2.62706 2.1354355-4.75481 4.7625-4.7625h50.8000033c2.627066.008 4.754811 2.13543 4.7625 4.7625v38.1z" filter="url(#filter1641)" opacity=".1"/>
      <path d="m46.56667 293.29582h-38.1000033c-2.6270652-.008-4.7548125-2.13543-4.7625-4.7625v-50.8c.00769-2.62706 2.1354355-4.75481 4.7625-4.7625h50.8000033c2.627066.008 4.754811 2.13543 4.7625 4.7625v38.1z" filter="url(#filter1627)" opacity=".1"/>
      <path d="m46.56667 293.29582h-38.1000033c-2.6270652-.008-4.7548125-2.13543-4.7625-4.7625v-50.8c.00769-2.62706 2.1354355-4.75481 4.7625-4.7625h50.8000033c2.627066.008 4.754811 2.13543 4.7625 4.7625v38.1z" opacity=".1"/>
    </g>
    <g clip-path="url(#clip-path)" fill="#fdc92b" transform="matrix(.38991228 0 0 .38991228 -3.564912 225.70173)">
      <path d="m128 172h-96a12.03527 12.03527 0 0 1 -12-12v-128a12.03528 12.03528 0 0 1 12-12h128a12.03527 12.03527 0 0 1 12 12v96l-26 18z"/>
      <path d="m240 173.1582-38.31641 26.52539-26.52539 38.31641h-141.474606a17.736187 17.736187 0 0 1 -17.683594-17.68359v2a17.736187 17.736187 0 0 0 17.683594 17.68359h141.474606l26.52539-38.31641 38.31641-26.52539z" opacity=".2" stroke-width="1.473684" transform="matrix(.67857143 0 0 .67857143 9.142857 9.142856)"/>
    </g>
    <path d="m46.343858 292.76665v-12.4772a4.6776569 4.6776569 0 0 1 4.678947-4.67894h12.477195z" fill="#fada80" stroke-width=".389912"/>
    <g clip-path="url(#clip-path)" transform="matrix(.38991228 0 0 .38991228 -3.564912 225.70173)">
      <path d="m140 129a11.99669 11.99669 0 0 0 -12 12v-1a11.99669 11.99669 0 0 1 12-12h32v1z" fill="#fff" fill-opacity=".2"/>
    </g>
    <g clip-path="url(#clip-path)" transform="matrix(.38991228 0 0 .38991228 -3.564912 225.70173)">
      <path d="m96 44a35.99562 35.99562 0 0 0 -18 67.17v28.83h8v8h22v-8h8v-30.07a35.99788 35.99788 0 0 0 -20-65.93zm12 88h-22v-8h22zm0-26.71v10.71h-22v-9.85a28.00589 28.00589 0 1 1 22-.86z" fill="#3e2723" filter="url(#material-drop-shadow)" opacity=".1"/>
      <path d="m96 44a35.99562 35.99562 0 0 0 -18 67.17v28.83h8v8h22v-8h8v-30.07a35.99788 35.99788 0 0 0 -20-65.93zm12 88h-22v-8h22zm0-26.71v10.71h-22v-9.85a28.00589 28.00589 0 1 1 22-.86z" fill="#f1f1f1"/>
      <path d="m86 133h22v-1h-22zm0-16h22v-1h-22zm0-10.85a28.02376 28.02376 0 0 1 -17.98-25.75c0 .2-.02.4-.02.61a28.05269 28.05269 0 0 0 18 26.15zm22-.86v1a28.03662 28.03662 0 0 0 16-25.29c0-.2-.01-.39-.02-.59a28.00651 28.00651 0 0 1 -15.98 24.88zm-12-61.29a36.00288 36.00288 0 0 0 -36 36c0 .14.01.28.01.43a35.99435 35.99435 0 0 1 71.98.01c0-.15.01-.29.01-.44a36.00288 36.00288 0 0 0 -36-36z" fill="#fff" fill-opacity=".4"/>
      <path d="m78 111.17a35.98941 35.98941 0 0 1 -17.99-30.74c0 .19-.01.38-.01.57a35.96459 35.96459 0 0 0 18 31.17zm8 13.83h22v-1h-22zm10-72a28.01749 28.01749 0 0 1 27.98 27.41c0-.14.02-.27.02-.41a28 28 0 1 0 -56 0c0 .13.01.26.02.39a28.01365 28.01365 0 0 1 27.98-27.39zm12 88h8v-1h-8zm23.99-60.56a35.9347 35.9347 0 0 1 -15.99 29.49v1a35.95108 35.95108 0 0 0 16-29.93c0-.19-.01-.37-.01-.56zm-45.99 59.56h-8v1h8zm0 9h22v-1h-22z" fill="#bf360c" fill-opacity=".1"/>
    </g>
    <g clip-path="url(#clip-path)" transform="matrix(.38991228 0 0 .38991228 -3.564912 225.70173)">
      <path d="m161.14 20h-130.28a10.8572 10.8572 0 0 0 -10.86 10.86v130.29a10.8636 10.8636 0 0 0 10.86 10.86h97.14l44-44v-97.15a10.8572 10.8572 0 0 0 -10.86-10.86z" fill="none"/>
    </g>
    <g clip-path="url(#clip-path)" transform="matrix(.38991228 0 0 .38991228 -3.564912 225.70173)">
      <path d="m33.683594 16a17.736202 17.736202 0 0 0 -17.683594 17.683594v2a17.736202 17.736202 0 0 1 17.683594-17.683594h188.632816a17.736187 17.736187 0 0 1 17.68359 17.683594v-2a17.736187 17.736187 0 0 0 -17.68359-17.683594z" fill="#fff" opacity=".3" stroke-width="1.473684" transform="matrix(.67857143 0 0 .67857143 9.142857 9.142856)"/>
    </g>
    <path d="m62.970833 275.61051-16.626893 16.62689v.52916l17.15606-17.15605z" fill="#080600" opacity=".2" stroke-width=".389912"/>
  </g>
</svg>

<?xml version="1.0" encoding="UTF-8" standalone="no"?>
<!-- Created with Inkscape (http://www.inkscape.org/) -->

<svg
   xmlns:dc="http://purl.org/dc/elements/1.1/"
   xmlns:cc="http://creativecommons.org/ns#"
   xmlns:rdf="http://www.w3.org/1999/02/22-rdf-syntax-ns#"
   xmlns:svg="http://www.w3.org/2000/svg"
   xmlns="http://www.w3.org/2000/svg"
   xmlns:sodipodi="http://sodipodi.sourceforge.net/DTD/sodipodi-0.dtd"
   xmlns:inkscape="http://www.inkscape.org/namespaces/inkscape"
   width="256"
   height="256"
   viewBox="0 0 67.733332 67.733335"
   version="1.1"
   id="svg984"
   inkscape:version="0.92.3 (2405546, 2018-03-11)"
   sodipodi:docname="Google Keep.svg">
  <defs
     id="defs978">
    <clipPath
       id="clip-path">
      <path
         d="M 128,172 H 32 A 12.03527,12.03527 0 0 1 20,160 V 32 A 12.03528,12.03528 0 0 1 32,20 h 128 a 12.03527,12.03527 0 0 1 12,12 v 96 z"
         style="fill:none"
         id="path2"
         inkscape:connector-curvature="0" />
    </clipPath>
    <clipPath
       id="clipPath943">
      <path
         d="M 128,172 H 32 A 12.03527,12.03527 0 0 1 20,160 V 32 A 12.03528,12.03528 0 0 1 32,20 h 128 a 12.03527,12.03527 0 0 1 12,12 v 96 z"
         style="fill:none"
         id="path941"
         inkscape:connector-curvature="0" />
    </clipPath>
    <clipPath
       id="clipPath947">
      <path
         d="M 128,172 H 32 A 12.03527,12.03527 0 0 1 20,160 V 32 A 12.03528,12.03528 0 0 1 32,20 h 128 a 12.03527,12.03527 0 0 1 12,12 v 96 z"
         style="fill:none"
         id="path945"
         inkscape:connector-curvature="0" />
    </clipPath>
    <filter
       id="material-drop-shadow"
       x="-24"
       y="-24"
       width="192"
       height="192">
      <feGaussianBlur
         result="blur"
         stdDeviation="4"
         in="SourceGraphic"
         id="feGaussianBlur10" />
      <feOffset
         result="offsetBlurredGraphic"
         dx="4"
         dy="4"
         in="blur"
         id="feOffset12" />
    </filter>
    <clipPath
       id="clipPath954">
      <path
         d="M 128,172 H 32 A 12.03527,12.03527 0 0 1 20,160 V 32 A 12.03528,12.03528 0 0 1 32,20 h 128 a 12.03527,12.03527 0 0 1 12,12 v 96 z"
         style="fill:none"
         id="path952"
         inkscape:connector-curvature="0" />
    </clipPath>
    <clipPath
       id="clipPath958">
      <path
         d="M 128,172 H 32 A 12.03527,12.03527 0 0 1 20,160 V 32 A 12.03528,12.03528 0 0 1 32,20 h 128 a 12.03527,12.03527 0 0 1 12,12 v 96 z"
         style="fill:none"
         id="path956"
         inkscape:connector-curvature="0" />
    </clipPath>
    <filter
       inkscape:collect="always"
       style="color-interpolation-filters:sRGB"
       id="filter1627"
       x="-0.012"
       width="1.024"
       y="-0.012"
       height="1.024">
      <feGaussianBlur
         inkscape:collect="always"
         stdDeviation="0.30162501"
         id="feGaussianBlur1629" />
    </filter>
    <filter
       inkscape:collect="always"
       style="color-interpolation-filters:sRGB"
       id="filter1641"
       x="-0.047999999"
       width="1.096"
       y="-0.048000001"
       height="1.096">
      <feGaussianBlur
         inkscape:collect="always"
         stdDeviation="1.2065"
         id="feGaussianBlur1643" />
    </filter>
  </defs>
  <sodipodi:namedview
     id="base"
     pagecolor="#ffffff"
     bordercolor="#666666"
     borderopacity="1.0"
     inkscape:pageopacity="0.0"
     inkscape:pageshadow="2"
     inkscape:zoom="2.3010713"
     inkscape:cx="102.34072"
     inkscape:cy="133.52577"
     inkscape:document-units="mm"
     inkscape:current-layer="g56"
     showgrid="false"
     units="px"
     inkscape:window-width="1920"
     inkscape:window-height="1009"
     inkscape:window-x="0"
     inkscape:window-y="34"
     inkscape:window-maximized="1" />
  <metadata
     id="metadata981">
    <rdf:RDF>
      <cc:Work
         rdf:about="">
        <dc:format>image/svg+xml</dc:format>
        <dc:type
           rdf:resource="http://purl.org/dc/dcmitype/StillImage" />
        <dc:title></dc:title>
      </cc:Work>
    </rdf:RDF>
  </metadata>
  <g
     inkscape:label="Livello 1"
     inkscape:groupmode="layer"
     id="layer1"
     transform="translate(0,-229.26665)">
    <path
       inkscape:connector-curvature="0"
       id="path1631"
       style="fill:#000000;fill-opacity:1;stroke-width:0.39687499;opacity:0.1;filter:url(#filter1641)"
       d="M 46.56667,293.29582 H 8.4666667 c -2.6270652,-0.008 -4.7548125,-2.13543 -4.7625,-4.7625 v -50.8 c 0.00769,-2.62706 2.1354355,-4.75481 4.7625,-4.7625 H 59.26667 c 2.627066,0.008 4.754811,2.13543 4.7625,4.7625 v 38.1 z"
       sodipodi:nodetypes="ccccccccc" />
    <path
       sodipodi:nodetypes="ccccccccc"
       d="M 46.56667,293.29582 H 8.4666667 c -2.6270652,-0.008 -4.7548125,-2.13543 -4.7625,-4.7625 v -50.8 c 0.00769,-2.62706 2.1354355,-4.75481 4.7625,-4.7625 H 59.26667 c 2.627066,0.008 4.754811,2.13543 4.7625,4.7625 v 38.1 z"
       style="fill:#000000;fill-opacity:1;stroke-width:0.39687499;opacity:0.1;filter:url(#filter1627)"
       id="path1625"
       inkscape:connector-curvature="0" />
    <path
       inkscape:connector-curvature="0"
       id="path1595"
       style="fill:#000000;fill-opacity:1;stroke-width:0.39687499;opacity:0.1"
       d="M 46.56667,293.29582 H 8.4666667 c -2.6270652,-0.008 -4.7548125,-2.13543 -4.7625,-4.7625 v -50.8 c 0.00769,-2.62706 2.1354355,-4.75481 4.7625,-4.7625 H 59.26667 c 2.627066,0.008 4.754811,2.13543 4.7625,4.7625 v 38.1 z"
       sodipodi:nodetypes="ccccccccc" />
    <g
       transform="matrix(0.38991228,0,0,0.38991228,-3.5649123,225.70173)"
       clip-path="url(#clip-path)"
       id="g26"
       style="fill:#fdc92b;fill-opacity:1">
      <path
         d="M 128,172 H 32 A 12.03527,12.03527 0 0 1 20,160 V 32 A 12.03528,12.03528 0 0 1 32,20 h 128 a 12.03527,12.03527 0 0 1 12,12 v 96 l -26,18 z"
         style="fill:#fdc92b;fill-opacity:1"
         id="path24"
         inkscape:connector-curvature="0" />
      <path
         inkscape:connector-curvature="0"
         style="opacity:0.2;fill:#fdc92b;fill-opacity:1;stroke-width:1.47368419"
         d="M 240,173.1582 201.68359,199.68359 175.1582,238 H 33.683594 A 17.736187,17.736187 0 0 1 16,220.31641 v 2 A 17.736187,17.736187 0 0 0 33.683594,240 H 175.1582 L 201.68359,201.68359 240,175.1582 Z"
         transform="matrix(0.67857143,0,0,0.67857143,9.1428571,9.1428557)"
         id="path939" />
    </g>
    <path
       d="m 46.343858,292.76665 v -12.4772 a 4.6776569,4.6776569 0 0 1 4.678947,-4.67894 H 63.5 Z"
       style="fill:#fada80;stroke-width:0.38991228"
       id="path36"
       inkscape:connector-curvature="0" />
    <g
       transform="matrix(0.38991228,0,0,0.38991228,-3.5649123,225.70173)"
       clip-path="url(#clip-path)"
       id="g44">
      <path
         d="m 140,129 a 11.99669,11.99669 0 0 0 -12,12 v -1 a 11.99669,11.99669 0 0 1 12,-12 h 32 v 1 z"
         style="fill:#ffffff;fill-opacity:0.2"
         id="path42"
         inkscape:connector-curvature="0" />
    </g>
    <g
       transform="matrix(0.38991228,0,0,0.38991228,-3.5649123,225.70173)"
       clip-path="url(#clip-path)"
       id="g58">
      <g
         id="g56">
        <g
           id="g50">
          <path
             d="M 96,44 A 35.99562,35.99562 0 0 0 78,111.17 V 140 h 8 v 8 h 22 v -8 h 8 V 109.93 A 35.99788,35.99788 0 0 0 96,44 Z m 12,88 H 86 v -8 h 22 z m 0,-26.71 V 116 H 86 v -9.85 a 28.00589,28.00589 0 1 1 22,-0.86 z"
             style="opacity:0.1;fill:#3e2723;filter:url(#material-drop-shadow)"
             id="path46"
             inkscape:connector-curvature="0" />
          <path
             d="M 96,44 A 35.99562,35.99562 0 0 0 78,111.17 V 140 h 8 v 8 h 22 v -8 h 8 V 109.93 A 35.99788,35.99788 0 0 0 96,44 Z m 12,88 H 86 v -8 h 22 z m 0,-26.71 V 116 H 86 v -9.85 a 28.00589,28.00589 0 1 1 22,-0.86 z"
             style="fill:#f1f1f1"
             id="path48"
             inkscape:connector-curvature="0" />
        </g>
        <path
           d="m 86,133 h 22 v -1 H 86 Z m 0,-16 h 22 v -1 H 86 Z m 0,-10.85 A 28.02376,28.02376 0 0 1 68.02,80.4 c 0,0.2 -0.02,0.4 -0.02,0.61 a 28.05269,28.05269 0 0 0 18,26.15 z m 22,-0.86 v 1 A 28.03662,28.03662 0 0 0 124,81 c 0,-0.2 -0.01,-0.39 -0.02,-0.59 A 28.00651,28.00651 0 0 1 108,105.29 Z M 96,44 A 36.00288,36.00288 0 0 0 60,80 c 0,0.14 0.01,0.28 0.01,0.43 a 35.99435,35.99435 0 0 1 71.98,0.01 C 131.99,80.29 132,80.15 132,80 A 36.00288,36.00288 0 0 0 96,44 Z"
           style="fill:#ffffff;fill-opacity:0.4"
           id="path52"
           inkscape:connector-curvature="0" />
        <path
           d="M 78,111.17 A 35.98941,35.98941 0 0 1 60.01,80.43 C 60.01,80.62 60,80.81 60,81 a 35.96459,35.96459 0 0 0 18,31.17 z M 86,125 h 22 v -1 H 86 Z M 96,53 a 28.01749,28.01749 0 0 1 27.98,27.41 c 0,-0.14 0.02,-0.27 0.02,-0.41 a 28,28 0 1 0 -56,0 c 0,0.13 0.01,0.26 0.02,0.39 A 28.01365,28.01365 0 0 1 96,53 Z m 12,88 h 8 v -1 h -8 z M 131.99,80.44 A 35.9347,35.9347 0 0 1 116,109.93 v 1 A 35.95108,35.95108 0 0 0 132,81 c 0,-0.19 -0.01,-0.37 -0.01,-0.56 z M 86,140 h -8 v 1 h 8 z m 0,9 h 22 v -1 H 86 Z"
           style="fill:#bf360c;fill-opacity:0.1"
           id="path54"
           inkscape:connector-curvature="0" />
      </g>
    </g>
    <g
       transform="matrix(0.38991228,0,0,0.38991228,-3.5649123,225.70173)"
       clip-path="url(#clip-path)"
       id="g62">
      <path
         d="M 161.14,20 H 30.86 A 10.8572,10.8572 0 0 0 20,30.86 v 130.29 a 10.8636,10.8636 0 0 0 10.86,10.86 H 128 l 44,-44 V 30.86 A 10.8572,10.8572 0 0 0 161.14,20 Z"
         style="fill:none"
         id="path60"
         inkscape:connector-curvature="0" />
    </g>
    <g
       transform="matrix(0.38991228,0,0,0.38991228,-3.5649123,225.70173)"
       id="g918"
       clip-path="url(#clip-path)">
      <path
         inkscape:connector-curvature="0"
         style="opacity:0.3;fill:#ffffff;fill-opacity:1;stroke-width:1.47368419"
         d="M 33.683594,16 A 17.736202,17.736202 0 0 0 16,33.683594 v 2 A 17.736202,17.736202 0 0 1 33.683594,18 H 222.31641 A 17.736187,17.736187 0 0 1 240,35.683594 v -2 A 17.736187,17.736187 0 0 0 222.31641,16 Z"
         transform="matrix(0.67857143,0,0,0.67857143,9.1428571,9.1428557)"
         id="path916" />
    </g>
    <path
       style="opacity:0.2;fill:#080600;fill-opacity:1;stroke-width:0.38991228"
       d="M 62.970833,275.61051 46.34394,292.2374 v 0.52916 L 63.5,275.61051 Z"
       id="path920"
       inkscape:connector-curvature="0" />
    <g
       id="g1599"
       clip-path="url(#clip-path)"
       transform="matrix(0.396875,0,0,0.396875,-103.80349,222.63843)" />
  </g>
</svg>
